X:1
T:Gaude Virgo Mater Christi
T:Josquin des Prez edit BMarble
T:Gaude Virgo Mater Christi
T:Copyright © 2015 by CPDL.  This edition can be fully distributed, duplicated, performed, and recorded. 
T:Copyright © 2015 by CPDL.  This edition can be fully distributed, duplicated, performed, and recorded. 
T:Copyright © 2015 by CPDL.  This edition can be fully distributed, duplicated, performed, and recorded. 
T:Copyright © 2015 by CPDL.  This edition can be fully distributed, duplicated, performed, and recorded. 
T:Copyright © 2015 by CPDL.  This edition can be fully distributed, duplicated, performed, and recorded. 
T:Copyright © 2015 by CPDL.  This edition can be fully distributed, duplicated, performed, and recorded. 
T:Copyright © 2015 by CPDL.  This edition can be fully distributed, duplicated, performed, and recorded. 
T:Copyright © 2015 by CPDL.  This edition can be fully distributed, duplicated, performed, and recorded. 
T:Copyright © 2015 by CPDL.  This edition can be fully distributed, duplicated, performed, and recorded. 
C:Josquin des Prez
C:edit BMarble
Z:Copyright © 2015 by CPDL.  This edition can be fully distributed, duplicated, performed, and recorded.
Z:
%%score [ 1 2 3 4 ]
L:1/8
Q:1/4=56
M:2/1
K:Eb
V:1 treble nm="SOPRANO" snm="S."
V:2 treble nm="ALTO" snm="A."
V:3 treble-8 transpose=-12 nm="TENOR" snm="T."
V:4 bass nm="BASS" snm="B."
V:1
"^Rejoice, virgin mother of Christ, who conceived by hearing the news Gabriel announced.Rejoice, for full of God you gave birth without pain, with the lily of purity.Rejoice, for the resurrection of your Son, whose death you mourned, now shines brightly.Rejoice, Christ ascends, as you look into the sky;he rises to heaven by his own strength.Rejoice, you who rise after him, and to whom great honor is due in the palace of heaven,Where by you the fruit of your womb is granted for our eternal rejoicing." C16 | %1
w: Gau-|
 C8 C8 | E6 F2 G4 A4 | G4 A8 G2 F2 | G8 C8 | C8 C8 | E6 F2 G4 A4 | G4 A8 G2 F2 | G8 z4 c4 | %9
w: de Vir-|go, _ _ Ma-|ter Chri- * *|sti, quae|per au-|rem _ _ con-|ce- pi- * *|sti, con-|
 B4 c8 B2 A2 | B8 z8 | G8 G8 | B6 c2 d2 e2 d4- | d2 B2 c2 d2 e4 d4- | d2 B2 c2 d2 e4 d4- | %15
w: ce- pi- * *|sti,|Ga- bri-|e- * * * *|* * * * * le|_ _ _ _ _ nun-|
 d2 c2 c8 =B4 | c16- | c16 | z16 | z16 | z16 | z16 | z16 | z16 | z16 | z16 | z16 | z16 | z16 | %29
w: * * * ti-|o.|_||||||||||||
 z16 | z16 | z8 c8 | e8 e8 | d8 B8 | c8 c8 | B8 G8 | A8 A8 | G8 E8 | F8 F8 | E4 B4 c4 e4- | %40
w: ||Gau-|de, qui-|a tu-|i Na-|ti, quem|do- le-|bas mor-|tem pa-|ti, mor- tem pa-|
 e4 d2 c2 d8 | e4 (c4 e4) d4- | d4 c8 B2 A2 | B4 (G4 B4) =A4- | A4 G4 B6 =A2 | F4 G8 F4 | G16 | %47
w: |ti, mor- * tem|_ pa- * *|ti, mor- * tem|_ pa- * *||ti,|
 z4 G8 F2 E2 | F4 E4 C4 G4 | A4 G8 F2 E2 | F4 E4 C4 c4 | d2 c2 e6 d2 c4- | c4 =B4 c8 | z16 | z16 | %55
w: ful- * *|* * get re-|sur- rec- * *|* ti- o, re-|sur- * rec- * *|* ti- o.|||
 z16 | z4 G8 =A4- | A4 B8 c4- | c4 d8 e4- | e2 d2 e2 c2 d4 (G4 | =A4) B4 c4 d4- | d4 B4 =A8 | %62
w: |Et in|_ coe- lum|_ te vi-|* * * * den- te,|_ te vi- den-||
 G8 z8 | z8 d8 | e8 c8 | d8 B8 | c8 c8 | z8 d8 | e8 c8 | d8 B6 =A2 | B4 c8 =B4 ||[M:3/2] c8 z4 | %72
w: te|Mo-|tu fer-|tur pro-|pri- o,|mo-|tu fer-|tur pro- *|* * pri-|o.|
 G8 =A4 | F4 G8 | =A4 B4 c4- | c4 d4 z4 | G8 =A4 | F4 G8 | =A4 B4 c4- | c4 d4 z4 | d8 e4 | %81
w: Gau- de,|quae post|ip- sum scan-|* dis,|et est|ho- nor|ti- bi gran-|* dis,|in coe-|
 c4 d6 c2 | c8 =B4 ||[M:2/1] c12 _B4 | G8 B8 | =A8 c8 | G8 B8 | =A6 B2 c8 | d8 z8 | B8 =A8 | %90
w: li pa- *|la- ti-|o, _|_ u-|bi fruc-|tus ven-|tris _ tu-|i|per te|
 c8 G8 | B8 =A6 B2 | c8 d8 ||[M:3/2] d8 e4 | c4 d6 c2 | c8 =B4 ||[M:2/1] c16 | z4 C4 E6 F2 | %98
w: de- tur|no- bis _|fru- i|in per-|en- ni _|gau- di-|o.|Al- le- *|
 G4 A4 G8 | z8 z4 C4 | E6 F2 G2 A2 G4- | G4 F4 G4 e4 | e4 e8 d2 c2 | _B16- | B16 | c16- | c16 |] %107
w: * lu- ia,|al-|le- * * * *|* lu- ia, al-|le- lu- * *|||ia.|_|
V:2
 z16 | z16 | C16 | C8 C8 | E6 F2 G4 A4 | G4 A8 G2 F2 | G8 C8 | C8 C8 | E6 F2 G4 A4 | G4 A8 G2 F2 | %10
w: ||Gau-|de Vir-|go, _ _ Ma-|ter Chri- * *|sti, quae|per au-|rem _ _ con-|ce- pi- * *|
 G16 | z8 G8 | G8 B8- | B4 _A4 G4 F4 | E6 D2 C4 B,4 | C8 D8 | C16- | C16 | z16 | z16 | z16 | z16 | %22
w: sti,|Ga-|bri- e-|* * * le|nun- * * *|* ti-|o.|_|||||
 z16 | z16 | z16 | z16 | z16 | z16 | z16 | z16 | z16 | z16 | z8 G8 | B8 B8 | _A8 F8 | G8 G8 | F16 | %37
w: ||||||||||Gau-|de, qui-|a tu-|i Na-|ti,|
 z8 G8 | A8 A8 | G8 E8 | F8 F8 | (3:2:2E8 C4 (3B,4 D4 E4 | (3:2:2F8 D4 (3C4 E4 F4 | (3G8 D8 F8 | %44
w: quem|do- le-|bas mor-|tem pa-|ti, _ mor- * *|tem _ pa- * *||
 (3E8 B,8 C8 | D16 | B,12 _A,2 G,2 | A,4 G,4 z4 G4 | A4 G8 F2 E2 | F4 E4 C4 G4 | A4 G8 F2 E2 | %51
w: |ti,|ful- * *|* get re-|sur- rec- * *|* ti- o, re-|sur- rec- * *|
 F4 E4 C6 E2 | D8 C8 | z16 | z16 | z16 | z8 C8 | D8 E8 | F8 G8 | _A8 B8 | c4 G4 =A4 B4- | %61
w: |ti- o.||||Et|in coe-|lum te|vi- den-|te, te vi- den-|
 B2 =A2 G8 ^F4 | G8 C8 | =A8 B8 | G8 =A8 | F8 G8 | G8 z8 | =A8 B8 | G8 =A8 | F8 G8 | G16 || %71
w: |te _|Mo- tu|fer- tur|pro- pri-|o,|mo- tu|fer- tur|pro- pri-|o.|
[M:3/2] _E12 | z4 C8 | D4 B,4 C4- | C4 D4 E4 | F6 E2 G4 | z4 C8 | D4 B,4 C4- | C4 D4 E4 | %79
w: _|Gau-|de, quae post|_ ip- sum|scan- * dis,|et|est ho- nor|_ ti- bi|
 F6 E2 G4 | z4 G8 | =A4 F4 G4 | G4 G8 ||[M:2/1] E8 z8 | E8 D8 | F8 C8 | E8 D6 E2 | F8 G8 | z8 E8 | %89
w: gran- * dis,|in|coe- li pa-|la- ti-|o,|u- bi|fruc- tus|ven- tris _|tu- i|per|
 D8 F8 | C8 E8 | D6 E2 F8 | G16 ||[M:3/2] z4 G8 | =A4 F4 G4 | G4 G8 ||[M:2/1] E8 z4 C4 | %97
w: te de-|tur no-|bis _ fru-|i|in|per- en- ni|gau- di-|o. Al-|
 E6 F2 G4 _A4 | G4 C4 E6 F2 | G2 A2 G8 F4 | G16 | z4 C4 E6 F2 | G2 A2 G8 F4 | G16- | G16 | G16- | %106
w: le- * * lu-|ia, al- le- *|* * * lu-|ia,|al- le- *||lu-||ia.|
 G16 |] %107
w: _|
V:3
 z16 | z16 | z16 | z16 | z16 | z16 | z16 | z16 | z16 | z16 | z16 | z16 | z16 | z16 | z16 | z16 | %16
w: ||||||||||||||||
 z8 C8 | E8 F8 | G4 C4 c6 B2 | G4 B4 A8 | G8 z4 C4 | E8 F8 | G4 C4 c6 B2 | G4 B4 A8 | %24
w: Gau-|de, qui-|a _ De- *|* o ple-|na pe-|pe- ri-|sti _ si- *|* ne poe-|
 G4 E4 F4 C2 D2 | E2 F2 G8 F4 | G4 z4 B8 | c8 d8 | G2 A2 B2 c2 d2 c2 e4 | G2 A2 B2 c2 d2 c2 e4- | %30
w: na, si- ne poe- *||na, cum|pu- do-|ris _ _ _ _ _ _|li- * * * * * *|
 e2 d2 c8 =B4 | c16- | c16 | B12 _A2 G2 | F16 | z4 B4 c4 e4- | e4 d2 c2 d4 c4- | c4 B2 A2 G4 c4 | %38
w: * * * li-|o.|_|Gau- * *|de,|qui- a tu-|* * * * i|_ _ _ _ Na-|
 F16 | c4 G4 A4 c4- | c4 B2 =A2 B4 F4 | G8 G8 | F8 z4 c4 | d8 d8 | c8 z4 G4 | =A8 A8 | G16 | c16 | %48
w: ti,|quem do- le- bas|_ _ _ _ mor-|tem pa-|ti, mor-|tem pa-|ti, mor-|tem pa-|ti,|_|
 z16 | z16 | z16 | z16 | z4 G8 =A4- | A4 B8 c4- | c4 d8 e4- | e2 d2 e2 c2 d8 | c8 z8 | z16 | z16 | %59
w: ||||Gau- de,|_ Chri- sto|_ a- scen-|* * * * den-|te,|||
 z16 | z16 | z8 z4 d4- | d4 e8 c4- | c4 d8 B4- | B4 c8 =A4- | A4 B6 G2 G4- | G4 e8 c4- | %67
w: ||Mo-|* tu fer-|* tur pro-||* * pri- o,|_ _ mo-|
 c4 d8 B4- | B4 c8 =A4- | A4 B6 G2 e4- | e2 d2 e2 c2 d8 ||[M:3/2] c12 | z12 | z12 | z12 | z12 | %76
w: * tu fer-|* tur pro-||* * * * pri-|o.|||||
 z12 | z12 | z12 | z12 | B8 c4 | =A4 B8 | c4 d8 ||[M:2/1] c8 z8 | c8 B4 d4- | d4 =A8 c4- | %86
w: ||||in coe-|li pa-|la- ti-|o,|u- bi fruc-|* tus ven-|
 c4 G6 =A2 B4 | c4 d4 e8 | d4 B4 c6 B2 | G4 d8 =A4- | A4 c8 G4- | G2 =A2 B4 c4 d4 | e8 d8 || %93
w: * tris _ _|tu- * *|i per te _|_ de- tur|_ no- bis|_ _ _ fru- *|* i|
[M:3/2] B8 c4 | =A4 B8 | c4 d8 ||[M:2/1] c16- | c8 z4 c4 | e6 f2 g4 c4 | z4 e8 d2 c2 | %100
w: in per-|en- ni|gau- di-|o.|_ Al-|le- * lu- ia,|al- le- *|
 (B4 c4) G4 e4- | e4 d2 c2 (B4 c4) | G6 A2 B4 c4 | d4 e8 d2 c2 | d16 | c16- | c16 |] %107
w: lu- * ia, al-|* le- * lu- *|ia, _ _ al-|le- lu- * *||ia.|_|
V:4
 z16 | z16 | z16 | z16 | z16 | z16 | z16 | z16 | z16 | z16 | z16 | z16 | z16 | z16 | z16 | z16 | %16
w: ||||||||||||||||
 z16 | z16 | z8 C,8 | E,8 F,8 | G,4 C,4 C6 B,2 | G,4 B,4 A,8 | G,8 z4 C,4 | E,8 F,8 | %24
w: ||Gau-|de, qui-|a _ De- *|* o ple-|na pe-|pe- ri-|
 G,4 C,4 C6 B,2 | G,4 B,4 A,8 | G,8 z4 E,4- | E,4 F,8 G,4- | G,2 F,2 G,2 A,2 F,4 G,4- | %29
w: sti _ si- *|* ne poe-|na, cum|_ pu- do-|* * * * * ris|
 G,2 F,2 G,2 A,2 F,4 G,4 | E,4 F,4 D,8 | C,16- | C,16 | z8 G,8 | A,8 A,8 | G,8 E,8 | F,8 F,8 | %37
w: _ _ _ _ _ _|li- * li-|o.|_|Gau-|de, qui-|a tu-|i Na-|
 E,16 | z16 | z8 C,8 | D,8 D,8 | C,8 G,8 | A,8 A,8 | G,8 z4 D,4 | E,8 E,8 | D,16 | z4 G,8 F,2 E,2 | %47
w: ti,||quem|do- le-|bas mor-|tem pa-|ti, mor-|tem pa-|ti,|ful- * *|
 F,4 E,4 C,8 | z16 | z16 | z16 | z16 | z8 C,8 | D,8 E,8 | F,8 G,8 | _A,8 B,8 | C16 | z16 | z16 | %59
w: * * get|||||Gau-|de, Chri-|sto a-|scen- den-|te,|||
 z16 | z16 | z16 | G,8 A,8 | F,8 G,8 | E,8 F,8 | D,8 G,8 | C,8 C8 | F,8 G,8 | E,8 F,8 | %69
w: |||Mo- tu|fer- tur|pro- pri-|o, _|_ _|mo- tu|fer- tur|
 D,8 E,6 F,2 | G,4 C,4 G,8 ||[M:3/2] C,12- | C,12 | z12 | z12 | z12 | z12 | z12 | z12 | z12 | %80
w: pro- * *|* * pri-|o.|_||||||||
 G,8 E,4 | F,4 D,4 (E,4 | C,4) G,8 ||[M:2/1] C,16 | z8 G,8 | D,4 F,8 C,4- | C,4 C,4 G,8 | %87
w: in coe-|li pa- la-|* ti-|o,|u-|bi fruc- tus|_ ven- tris|
 F,6 E,2 C,8 | G,8 z4 C,4 | G,6 F,2 D,4 F,4- | F,4 C,8 C,4 | G,8 F,6 E,2 | C,8 G,8 || %93
w: tu- * i|_ per|te _ _ de-|* tur no-|bis fru- *|i _|
[M:3/2] G,8 E,4 | F,4 D,4 (E,4 | C,4) G,8 ||[M:2/1] C,16- | C,16 | z8 z4 C,4 | E,6 F,2 G,4 A,4 | %100
w: in per-|en- ni gau-|* di-|o.|_|Al-|le- * * lu-|
 G,4 C,4 E,6 F,2 | G,4 A,4 G,4 C,4 | E,6 F,2 G,4 A,4 | G,16- | G,16 | C,16- | C,16 |] %107
w: ia, al- le- *|* lu- ia, al-|le- * * *|lu-||ia.|_|

